X: 20471
M: 2/4
L: 1/16
K: D
|: de |\
e2ec a2af | e2ec A2A2 | BABc dBed | d4 {ed}c2 cd |\
e2ec a2af | e2ec A2A2 | ^GABc dBAG | A4 z2 :|
|: fg |\
a6 f2 | b2a2g2f2 | e2e2 edef | d2e2f2g2 |\
a6 f2 | b2a2g2f2 | e2e2 edef | d2f2d2 :|


